img/fiasco/fiasco.svg

<svg fill="none" height="501" viewBox="0 0 800 501" width="800" xmlns="http://www.w3.org/2000/svg"><path d="m0 .900024h800v500h-800z" fill="#1b1726"/><path d="m170.613 202.413-2.188 21.875c-.021.216.004.434.072.641.068.206.179.396.325.557s.324.29.522.379c.199.088.414.134.631.135h55.475c.414 0 .812-.165 1.105-.458s.458-.69.458-1.104v-21.876c0-.414-.165-.811-.458-1.104s-.691-.458-1.105-.458h-53.287c-.388.001-.761.147-1.048.408-.286.261-.465.619-.502 1.005z" fill="#f3f3f4"/><path d="m146.85 301h-18.288c-.414 0-.811-.165-1.104-.458s-.458-.69-.458-1.104v-21.876c0-.414.165-.811.458-1.104s.69-.458 1.104-.458h20.475c.218.001.434.047.633.135.199.089.378.217.524.378.147.161.259.351.329.557.07.207.096.425.077.642l-2.188 21.875c-.04.387-.221.746-.51 1.006-.288.261-.663.406-1.052.407z" fill="#f3f3f4"/><path d="m127 202.563v59.375c0 .414.165.811.458 1.104s.69.458 1.104.458h22.025c.388-.001.761-.147 1.048-.408.286-.261.465-.619.503-1.004l5.937-59.375c.023-.217 0-.436-.068-.644-.067-.207-.178-.398-.324-.559-.147-.162-.325-.291-.525-.379-.199-.087-.415-.132-.633-.131h-27.963c-.414 0-.811.165-1.104.458s-.458.69-.458 1.105z" fill="#f3f3f4"/><path d="m166.863 239.913-2.188 21.875c-.021.216.004.434.072.641.068.206.179.396.325.557s.324.29.522.379c.199.088.414.134.631.135h59.225c.414 0 .812-.165 1.105-.458s.458-.69.458-1.104v-21.876c0-.414-.165-.811-.458-1.104s-.691-.458-1.105-.458h-57.037c-.388.001-.761.147-1.048.408-.286.261-.465.619-.502 1.005z" fill="#c8c8cc"/><path d="m161.863 277.413-2.188 21.875c-.021.216.004.434.072.641.068.206.179.396.325.557s.324.29.522.379c.199.088.414.134.631.135h64.225c.414 0 .812-.165 1.105-.458s.458-.69.458-1.104v-21.876c0-.414-.165-.811-.458-1.104s-.691-.458-1.105-.458h-62.037c-.388.001-.761.147-1.048.408-.286.261-.465.619-.502 1.005z" fill="#716f79"/><g fill="#f3f3f4"><path d="m327.362 215.112v7.5c.011.215-.023.428-.1.628-.078.2-.196.382-.348.533-.153.151-.335.268-.535.344-.201.075-.415.108-.629.095h-36.75v20.788h34.287c.216-.013.431.02.632.097.202.076.385.195.537.347s.271.335.347.537c.077.201.11.416.097.631v7.6c.013.216-.02.431-.097.632-.076.202-.195.385-.347.537s-.335.271-.537.347c-.201.077-.416.11-.632.097h-34.287v31.012c.015.215-.017.43-.092.631-.075.202-.192.385-.343.538-.152.152-.334.271-.535.347-.201.077-.415.11-.63.097h-8.75c-.215.013-.43-.02-.632-.097-.201-.076-.384-.195-.537-.347-.152-.152-.27-.335-.347-.537-.076-.201-.109-.416-.097-.632v-71.725c-.012-.215.021-.43.097-.631.077-.202.195-.385.347-.537.153-.152.336-.271.537-.347.202-.077.417-.11.632-.097h47.137c.212-.007.424.03.621.109.196.079.375.198.523.35.148.151.263.332.337.531.075.199.107.411.094.622z"/><path d="m375.45 224.263v53.475h18.1c.214-.013.428.02.629.095.2.076.382.193.535.344.152.151.27.333.348.533.077.2.111.414.1.628v7.5c.013.215-.02.43-.096.631-.077.202-.195.385-.348.537-.152.152-.335.271-.536.347-.202.077-.417.11-.632.097h-48.2c-.215.013-.429-.02-.63-.097-.201-.076-.383-.195-.535-.347-.151-.153-.268-.336-.343-.537-.075-.202-.107-.417-.092-.631v-7.5c-.013-.214.02-.428.096-.627.076-.2.193-.382.344-.533.152-.151.333-.269.533-.345s.414-.108.627-.095h18.113v-53.475h-18.113c-.213.012-.427-.02-.627-.096s-.381-.194-.533-.345c-.151-.151-.268-.332-.344-.532s-.109-.414-.096-.627v-7.5c-.015-.215.017-.43.092-.631.075-.202.192-.385.343-.537.152-.153.334-.272.535-.348.201-.077.415-.11.63-.097h48.212c.216-.013.431.02.632.097.202.076.385.195.537.347s.271.335.347.537c.077.201.11.416.097.632v7.5c.011.214-.023.428-.101.628-.077.199-.196.381-.348.532s-.334.268-.535.344c-.2.075-.415.108-.629.096z"/><path d="m468.538 288.5h-8.838c-.405.055-.816-.043-1.153-.274s-.577-.579-.672-.976l-3.587-13.338h-27.75l-3.588 13.338c-.095.397-.335.745-.672.976s-.748.329-1.153.274h-8.75c-1.175 0-1.6-.75-1.25-1.825l20-71.888c.133-.384.388-.715.727-.94.339-.226.742-.335 1.148-.31h14.9c.406-.025.809.084 1.148.31.339.225.594.556.727.94l20.088 71.888c.225 1.075-.15 1.825-1.325 1.825zm-16.988-25-10.062-37.613h-2.15l-10.063 37.613z"/><path d="m537.1 268.412c0 13.75-8.95 21.7-27.85 21.7-16.662 0-26.1-6-27.275-19.025-.047-.227-.045-.462.008-.688.052-.226.154-.438.296-.621.143-.184.324-.334.53-.44.207-.106.434-.166.666-.176h8.225c.963 0 1.45.75 1.613 1.6 1.062 5.313 6.537 8.475 15.912 8.475 10.225 0 16.063-3.325 16.063-10.562 0-8.25-5.25-10.5-16.438-12.963-13.5-3-25.35-7.925-25.35-22.5 0-12.587 8.25-20.737 25.125-20.737 15.438 0 24.863 6 26.15 18.75.045.216.039.44-.017.653-.056.214-.16.411-.306.577-.145.166-.327.296-.532.38-.204.084-.425.119-.645.102h-7.662c-.198.016-.396-.008-.584-.07-.187-.061-.361-.159-.511-.288s-.273-.286-.362-.463-.142-.369-.156-.566c-.85-4.825-6.1-8.363-15.262-8.363-8.463 0-13.613 3.65-13.613 10 0 6.163 3.488 9.75 13.75 11.838 14.463 2.862 28.225 7.362 28.225 23.387z"/><path d="m593.875 268.5c.068-.421.295-.8.635-1.058.34-.259.766-.377 1.19-.329h8.087c1.075 0 1.563.637 1.451 1.762-1.613 15.7-9.75 21.25-26.25 21.25-18.963 0-27.001-8.037-27.001-35.625v-6.437c0-27.638 8.038-35.625 27.001-35.625 16.45 0 24.587 5.575 26.25 21.25.112 1.125-.376 1.762-1.451 1.762h-8.087c-.424.047-.85-.07-1.19-.329-.34-.258-.567-.637-.635-1.058-1.25-8.363-5.725-10.075-14.512-10.075-10.238 0-15.651 3.212-15.651 24.112v6.313c0 20.9 5.413 24.162 15.651 24.162 9.1.013 13.237-1.75 14.512-10.075z"/><path d="m673.9 248.05v6.375c0 27.75-7.775 35.687-26.838 35.687-19.062 0-26.85-7.937-26.85-35.687v-6.375c0-27.688 7.775-35.625 26.85-35.625s26.838 7.937 26.838 35.625zm-42 .062v6.313c0 21.375 4.6 24.162 15.162 24.162 10.563 0 15.15-2.787 15.15-24.162v-6.313c0-21.375-4.6-24.162-15.15-24.162s-15.162 2.787-15.162 24.162z"/></g></svg>

<svg width="800" height="501" viewBox="0 0 800 501" fill="none" xmlns="http://www.w3.org/2000/svg">
<rect width="800" height="500" transform="translate(0 0.900024)" fill="#1B1726"/>
<path d="M170.613 202.413L168.425 224.288C168.404 224.504 168.429 224.722 168.497 224.929C168.565 225.135 168.676 225.325 168.822 225.486C168.968 225.647 169.146 225.776 169.344 225.865C169.543 225.953 169.758 225.999 169.975 226H225.45C225.864 226 226.262 225.835 226.555 225.542C226.848 225.249 227.013 224.852 227.013 224.438V202.562C227.013 202.148 226.848 201.751 226.555 201.458C226.262 201.165 225.864 201 225.45 201H172.163C171.775 201.001 171.402 201.147 171.115 201.408C170.829 201.669 170.65 202.027 170.613 202.413V202.413Z" fill="#F3F3F4"/>
<path d="M146.85 301H128.562C128.148 301 127.751 300.835 127.458 300.542C127.165 300.249 127 299.852 127 299.438V277.562C127 277.148 127.165 276.751 127.458 276.458C127.751 276.165 128.148 276 128.562 276H149.037C149.255 276.001 149.471 276.047 149.67 276.135C149.869 276.224 150.048 276.352 150.194 276.513C150.341 276.674 150.453 276.864 150.523 277.07C150.593 277.277 150.619 277.495 150.6 277.712L148.412 299.587C148.372 299.974 148.191 300.333 147.902 300.593C147.614 300.854 147.239 300.999 146.85 301V301Z" fill="#F3F3F4"/>
<path d="M127 202.563V261.938C127 262.352 127.165 262.749 127.458 263.042C127.751 263.335 128.148 263.5 128.562 263.5H150.587C150.975 263.499 151.348 263.353 151.635 263.092C151.921 262.831 152.1 262.473 152.138 262.088L158.075 202.713C158.098 202.496 158.075 202.277 158.007 202.069C157.94 201.862 157.829 201.671 157.683 201.51C157.536 201.348 157.358 201.219 157.158 201.131C156.959 201.044 156.743 200.999 156.525 201H128.562C128.148 201 127.751 201.165 127.458 201.458C127.165 201.751 127 202.148 127 202.563Z" fill="#F3F3F4"/>
<path d="M166.863 239.913L164.675 261.788C164.654 262.004 164.679 262.222 164.747 262.429C164.815 262.635 164.926 262.825 165.072 262.986C165.218 263.147 165.396 263.276 165.594 263.365C165.793 263.453 166.008 263.499 166.225 263.5H225.45C225.864 263.5 226.262 263.335 226.555 263.042C226.848 262.749 227.013 262.352 227.013 261.938V240.062C227.013 239.648 226.848 239.251 226.555 238.958C226.262 238.665 225.864 238.5 225.45 238.5H168.413C168.025 238.501 167.652 238.647 167.365 238.908C167.079 239.169 166.9 239.527 166.863 239.913V239.913Z" fill="#C8C8CC"/>
<path d="M161.863 277.413L159.675 299.288C159.654 299.504 159.679 299.722 159.747 299.929C159.815 300.135 159.926 300.325 160.072 300.486C160.218 300.647 160.396 300.776 160.594 300.865C160.793 300.953 161.008 300.999 161.225 301H225.45C225.864 301 226.262 300.835 226.555 300.542C226.848 300.249 227.013 299.852 227.013 299.438V277.562C227.013 277.148 226.848 276.751 226.555 276.458C226.262 276.165 225.864 276 225.45 276H163.413C163.025 276.001 162.652 276.147 162.365 276.408C162.079 276.669 161.9 277.027 161.863 277.413V277.413Z" fill="#716F79"/>
<path d="M327.362 215.112V222.612C327.373 222.827 327.339 223.04 327.262 223.24C327.184 223.44 327.066 223.622 326.914 223.773C326.761 223.924 326.579 224.041 326.379 224.117C326.178 224.192 325.964 224.225 325.75 224.212H289V245H323.287C323.503 244.987 323.718 245.02 323.919 245.097C324.121 245.173 324.304 245.292 324.456 245.444C324.608 245.596 324.727 245.779 324.803 245.981C324.88 246.182 324.913 246.397 324.9 246.612V254.212C324.913 254.428 324.88 254.643 324.803 254.844C324.727 255.046 324.608 255.229 324.456 255.381C324.304 255.533 324.121 255.652 323.919 255.728C323.718 255.805 323.503 255.838 323.287 255.825H289V286.837C289.015 287.052 288.983 287.267 288.908 287.468C288.833 287.67 288.716 287.853 288.565 288.006C288.413 288.158 288.231 288.277 288.03 288.353C287.829 288.43 287.615 288.463 287.4 288.45H278.65C278.435 288.463 278.22 288.43 278.018 288.353C277.817 288.277 277.634 288.158 277.481 288.006C277.329 287.854 277.211 287.671 277.134 287.469C277.058 287.268 277.025 287.053 277.037 286.837V215.112C277.025 214.897 277.058 214.682 277.134 214.481C277.211 214.279 277.329 214.096 277.481 213.944C277.634 213.792 277.817 213.673 278.018 213.597C278.22 213.52 278.435 213.487 278.65 213.5H325.787C325.999 213.493 326.211 213.53 326.408 213.609C326.604 213.688 326.783 213.807 326.931 213.959C327.079 214.11 327.194 214.291 327.268 214.49C327.343 214.689 327.375 214.901 327.362 215.112V215.112Z" fill="#F3F3F4"/>
<path d="M375.45 224.263V277.738H393.55C393.764 277.725 393.978 277.758 394.179 277.833C394.379 277.909 394.561 278.026 394.714 278.177C394.866 278.328 394.984 278.51 395.062 278.71C395.139 278.91 395.173 279.124 395.162 279.338V286.838C395.175 287.053 395.142 287.268 395.066 287.469C394.989 287.671 394.871 287.854 394.718 288.006C394.566 288.158 394.383 288.277 394.182 288.353C393.98 288.43 393.765 288.463 393.55 288.45H345.35C345.135 288.463 344.921 288.43 344.72 288.353C344.519 288.277 344.337 288.158 344.185 288.006C344.034 287.853 343.917 287.67 343.842 287.469C343.767 287.267 343.735 287.052 343.75 286.838V279.338C343.737 279.124 343.77 278.91 343.846 278.711C343.922 278.511 344.039 278.329 344.19 278.178C344.342 278.027 344.523 277.909 344.723 277.833C344.923 277.757 345.137 277.725 345.35 277.738H363.463V224.263H345.35C345.137 224.275 344.923 224.243 344.723 224.167C344.523 224.091 344.342 223.973 344.19 223.822C344.039 223.671 343.922 223.49 343.846 223.29C343.77 223.09 343.737 222.876 343.75 222.663V215.163C343.735 214.948 343.767 214.733 343.842 214.532C343.917 214.33 344.034 214.147 344.185 213.995C344.337 213.842 344.519 213.723 344.72 213.647C344.921 213.57 345.135 213.537 345.35 213.55H393.562C393.778 213.537 393.993 213.57 394.194 213.647C394.396 213.723 394.579 213.842 394.731 213.994C394.883 214.146 395.002 214.329 395.078 214.531C395.155 214.732 395.188 214.947 395.175 215.163V222.663C395.186 222.877 395.152 223.091 395.074 223.291C394.997 223.49 394.878 223.672 394.726 223.823C394.574 223.974 394.392 224.091 394.191 224.167C393.991 224.242 393.776 224.275 393.562 224.263H375.45Z" fill="#F3F3F4"/>
<path d="M468.538 288.5H459.7C459.295 288.555 458.884 288.457 458.547 288.226C458.21 287.995 457.97 287.647 457.875 287.25L454.288 273.912H426.538L422.95 287.25C422.855 287.647 422.615 287.995 422.278 288.226C421.941 288.457 421.53 288.555 421.125 288.5H412.375C411.2 288.5 410.775 287.75 411.125 286.675L431.125 214.787C431.258 214.403 431.513 214.072 431.852 213.847C432.191 213.621 432.594 213.512 433 213.537H447.9C448.306 213.512 448.709 213.621 449.048 213.847C449.387 214.072 449.642 214.403 449.775 214.787L469.863 286.675C470.088 287.75 469.713 288.5 468.538 288.5ZM451.55 263.5L441.488 225.887H439.338L429.275 263.5H451.55Z" fill="#F3F3F4"/>
<path d="M537.1 268.412C537.1 282.162 528.15 290.112 509.25 290.112C492.588 290.112 483.15 284.112 481.975 271.087C481.928 270.86 481.93 270.625 481.983 270.399C482.035 270.173 482.137 269.961 482.279 269.778C482.422 269.594 482.603 269.444 482.809 269.338C483.016 269.232 483.243 269.172 483.475 269.162H491.7C492.663 269.162 493.15 269.912 493.313 270.762C494.375 276.075 499.85 279.237 509.225 279.237C519.45 279.237 525.288 275.912 525.288 268.675C525.288 260.425 520.038 258.175 508.85 255.712C495.35 252.712 483.5 247.787 483.5 233.212C483.5 220.625 491.75 212.475 508.625 212.475C524.063 212.475 533.488 218.475 534.775 231.225C534.82 231.441 534.814 231.665 534.758 231.878C534.702 232.092 534.598 232.289 534.452 232.455C534.307 232.621 534.125 232.751 533.92 232.835C533.716 232.919 533.495 232.954 533.275 232.937H525.613C525.415 232.953 525.217 232.929 525.029 232.867C524.842 232.806 524.668 232.708 524.518 232.579C524.368 232.45 524.245 232.293 524.156 232.116C524.067 231.939 524.014 231.747 524 231.55C523.15 226.725 517.9 223.187 508.738 223.187C500.275 223.187 495.125 226.837 495.125 233.187C495.125 239.35 498.613 242.937 508.875 245.025C523.338 247.887 537.1 252.387 537.1 268.412Z" fill="#F3F3F4"/>
<path d="M593.875 268.5C593.943 268.079 594.17 267.7 594.51 267.442C594.85 267.183 595.276 267.065 595.7 267.113H603.787C604.862 267.113 605.35 267.75 605.238 268.875C603.625 284.575 595.488 290.125 578.988 290.125C560.025 290.125 551.987 282.088 551.987 254.5V248.063C551.987 220.425 560.025 212.438 578.988 212.438C595.438 212.438 603.575 218.013 605.238 233.688C605.35 234.813 604.862 235.45 603.787 235.45H595.7C595.276 235.497 594.85 235.38 594.51 235.121C594.17 234.863 593.943 234.484 593.875 234.063C592.625 225.7 588.15 223.988 579.363 223.988C569.125 223.988 563.712 227.2 563.712 248.1V254.413C563.712 275.313 569.125 278.575 579.363 278.575C588.463 278.588 592.6 276.825 593.875 268.5Z" fill="#F3F3F4"/>
<path d="M673.9 248.05V254.425C673.9 282.175 666.125 290.112 647.062 290.112C628 290.112 620.212 282.175 620.212 254.425V248.05C620.212 220.362 627.987 212.425 647.062 212.425C666.137 212.425 673.9 220.362 673.9 248.05ZM631.9 248.112V254.425C631.9 275.8 636.5 278.587 647.062 278.587C657.625 278.587 662.212 275.8 662.212 254.425V248.112C662.212 226.737 657.612 223.95 647.062 223.95C636.512 223.95 631.9 226.737 631.9 248.112Z" fill="#F3F3F4"/>
</svg>
